X: 16179
T: Green Mountain, The
R: reel
M: 4/4
K: Dmajor
|:AF F2 AFEF|DF F2 ABde|fBBA Bcde|fdgf efdB|
AF F2 AFEF|DF F2 ABde|fBBA BcdB|AFEF D4:|
|:faaf bfaf|defd e2de|f2 df efdB|Adfd edBd|
faaf bfaf|defd e2de|fBBA BcdB|AFEF D3:|

